packages/ui/public/icons/tipped-star-big-icon.svg

<svg width="37" height="37" viewBox="0 0 37 37" fill="none" xmlns="http://www.w3.org/2000/svg">
  <path d="M15.9263 12.8571L18.5734 0.518555L21.2204 12.8571C21.5573 14.4318 22.7867 15.6629 24.3592 16.0003L36.6806 18.651L24.3592 21.3017C22.7867 21.6391 21.5573 22.8703 21.2204 24.4449L18.5734 36.7835L15.9263 24.4449C15.5894 22.8703 14.36 21.6391 12.7875 21.3017L0.46608 18.651L12.7875 16.0003C14.36 15.6629 15.5894 14.4318 15.9263 12.8571Z" fill="#BF7AF0" />
</svg>

<svg width="37" height="37" fill="none" xmlns="http://www.w3.org/2000/svg"><path d="M15.926 12.857 18.573.52l2.647 12.338A4.09 4.09 0 0 0 24.36 16l12.32 2.651-12.32 2.65a4.09 4.09 0 0 0-3.14 3.144l-2.647 12.338-2.647-12.338a4.09 4.09 0 0 0-3.139-3.143L.467 18.65l12.32-2.65a4.09 4.09 0 0 0 3.14-3.144Z" fill="#BF7AF0"/></svg>
